icons/tokens/0xFe39Ce91437C76178665D64d7a2694B0f6f17fE3/logo.svg

<svg width="32" height="32" viewBox="0 0 32 32" fill="none" xmlns="http://www.w3.org/2000/svg">
<path fill-rule="evenodd" clip-rule="evenodd" d="M32 15.9999C32 13.9059 31.5834 11.8118 30.7821 9.87706C29.9805 7.94234 28.7942 6.16698 27.3136 4.68634C25.833 3.20538 24.0576 2.01946 22.1229 1.21786C20.1882 0.416579 18.0941 -6.10352e-05 16 -6.10352e-05C13.9059 -6.10352e-05 11.8115 0.416579 9.8768 1.21786C7.94208 2.01946 6.16704 3.20538 4.68608 4.68634C3.20544 6.16698 2.0192 7.94234 1.21792 9.87706C0.41632 11.8118 0 13.9059 0 15.9999C0 18.094 0.41632 20.1881 1.21792 22.1228C2.0192 24.0575 3.20544 25.8329 4.68608 27.3139C6.16704 28.7945 7.94208 29.9807 9.8768 30.782C11.8115 31.5833 13.9059 31.9999 16 31.9999C18.0941 31.9999 20.1882 31.5833 22.1229 30.782C24.0576 29.9807 25.833 28.7945 27.3136 27.3139C28.7942 25.8329 29.9805 24.0575 30.7821 22.1228C31.5834 20.1881 32 18.094 32 15.9999Z" fill="white"/>
<path fill-rule="evenodd" clip-rule="evenodd" d="M11.8547 3.38361C13.3453 2.89369 14.9382 2.66969 16.5162 2.73017C18.0944 2.79065 19.6579 3.13593 21.113 3.74393C22.5683 4.35193 23.9152 5.22297 25.0675 6.29753C26.5917 7.71929 27.775 9.49753 28.4848 11.4867C29.1949 13.4761 29.4314 15.6764 29.1574 17.7711C28.8838 19.8659 28.0998 21.8553 26.9139 23.566C25.728 25.2767 24.1398 26.7084 22.2746 27.7004C20.4093 28.6921 18.2662 29.2438 16.1539 29.2758C14.0416 29.3078 11.9597 28.8204 10.095 27.895C8.23073 26.9695 6.58337 25.6063 5.33249 23.9036C4.08161 22.2009 3.22721 20.1587 2.88801 18.0748C2.54881 15.9907 2.72481 13.8646 3.37473 11.8812C3.86593 10.3817 4.62817 8.96409 5.6048 7.73561H4.12033V5.28185H9.93696V10.7135H7.48321V9.22937C6.68321 10.2355 6.05857 11.3967 5.65633 12.6255C5.12417 14.2511 4.98081 15.9951 5.25633 17.6969C5.59873 19.8137 6.58881 21.8649 8.06657 23.4457C9.83425 25.3363 12.2995 26.5542 14.8659 26.8207C17.432 27.0873 20.0992 26.4028 22.2173 24.9286C24.3354 23.4543 25.905 21.1903 26.5421 18.6899C27.1792 16.1894 26.8838 13.4524 25.735 11.142C24.5862 8.83161 22.5837 6.94841 20.1891 5.95897C17.7946 4.96921 15.0077 4.87385 12.6038 5.66361L11.8547 3.38361Z" fill="url(#paint0_linear)"/>
<path fill-rule="evenodd" clip-rule="evenodd" d="M24 16C20.1169 17.8676 18.0646 16.9875 16.0418 15.9986C15.9839 15.9703 15.926 15.9419 15.8681 15.9135C13.9031 14.9495 11.9101 13.9717 8 16L16 24L24 16Z" fill="black"/>
<path opacity="0.5" fill-rule="evenodd" clip-rule="evenodd" d="M24 16L16 8L8 16C12.0254 13.912 14.019 15.0098 16.0418 15.9986C18.0646 16.9875 20.1169 17.8676 24 16Z" fill="black"/>
<path fill-rule="evenodd" clip-rule="evenodd" d="M14.0637 17.8688C14.1028 18.1401 14.2994 18.5351 14.5345 18.7837C14.7696 19.0324 15.0431 19.1348 15.3002 19.194C15.5574 19.2532 15.7984 19.2693 16.0523 19.2621C16.3061 19.255 16.573 19.2246 16.8199 19.1673C17.0671 19.11 17.2942 19.0258 17.4686 18.8493C17.6428 18.6729 17.7639 18.4041 17.7955 18.1411C17.8268 17.8781 17.7684 17.6207 17.6362 17.4109C17.504 17.2012 17.2979 17.039 16.9041 16.89C16.5105 16.7412 15.9294 16.6055 15.4965 16.4869C15.0634 16.3681 14.7787 16.2665 14.521 16.1436C14.2634 16.0209 14.0329 15.8771 13.8537 15.7173C13.6747 15.5572 13.5472 15.3811 13.4597 15.2066C13.372 15.032 13.3244 14.8588 13.2981 14.692C13.2718 14.525 13.2668 14.3644 13.2784 14.2047C13.29 14.0453 13.318 13.8868 13.3691 13.7258C13.4202 13.565 13.4943 13.4016 13.6023 13.2389C13.7103 13.0761 13.8523 12.914 14.0412 12.7656C14.2303 12.6173 14.4664 12.4828 14.7292 12.3847C14.9922 12.2866 15.2817 12.2249 15.599 12.1968V11.2H16.2866V12.1912C17.6101 12.3114 18.6413 13.1479 18.6814 14.4141H17.6846C17.6101 13.6406 17.1886 13.2939 16.5109 13.1224C16.3038 13.07 16.073 13.034 15.599 13.0963C14.7282 13.211 14.27 13.738 14.27 14.2938C14.27 14.8205 14.4768 15.1048 15.1735 15.3858C15.4959 15.5156 15.923 15.6449 16.2969 15.7238C17.9416 16.0712 18.7617 16.6999 18.7617 17.9032C18.7617 19.2838 17.6387 20.0344 16.2866 20.1376V21.1286H15.599V20.1318C14.2355 20.0114 13.1069 19.2037 13.0669 17.8688H14.0637Z" fill="white"/>
<defs>
<linearGradient id="paint0_linear" x1="2.04343" y1="13.297" x2="15.2222" y2="29.5764" gradientUnits="userSpaceOnUse">
<stop stop-color="#004CFF"/>
<stop offset="0.252131" stop-color="#00E0FB"/>
<stop offset="0.505709" stop-color="#87FF70"/>
<stop offset="0.755054" stop-color="#F8F500"/>
<stop offset="1" stop-color="#FF1A00"/>
</linearGradient>
</defs>
</svg>

<svg width="32" height="32" fill="none" xmlns="http://www.w3.org/2000/svg"><path fill-rule="evenodd" clip-rule="evenodd" d="M32 16c0-2.094-.417-4.188-1.218-6.123a16.058 16.058 0 00-3.468-5.19 16.051 16.051 0 00-5.191-3.47A16.054 16.054 0 0016 0c-2.094 0-4.188.417-6.123 1.218a16.055 16.055 0 00-5.19 3.468 16.05 16.05 0 00-3.47 5.191A16.049 16.049 0 000 16c0 2.094.416 4.188 1.218 6.123a16.056 16.056 0 003.468 5.19 16.055 16.055 0 005.19 3.469A16.056 16.056 0 0016 32c2.094 0 4.188-.417 6.123-1.218a16.051 16.051 0 005.19-3.468 16.063 16.063 0 003.47-5.191A16.054 16.054 0 0032 16z" fill="#fff"/><path fill-rule="evenodd" clip-rule="evenodd" d="M11.855 3.384a13.267 13.267 0 0113.213 2.914 13.155 13.155 0 013.417 5.189c.71 1.99.946 4.19.672 6.284a13.194 13.194 0 01-2.243 5.795 13.207 13.207 0 01-4.64 4.134 13.622 13.622 0 01-6.12 1.576 13.207 13.207 0 01-6.059-1.381 13.19 13.19 0 01-4.763-3.991 13.662 13.662 0 01-2.444-5.83 13.13 13.13 0 01.487-6.193 13.392 13.392 0 012.23-4.145H4.12V5.282h5.817v5.431H7.483V9.23a10.961 10.961 0 00-1.827 3.397 10.787 10.787 0 00-.4 5.07 11.107 11.107 0 002.81 5.75 10.952 10.952 0 006.8 3.375 11.023 11.023 0 007.351-1.892 10.999 10.999 0 004.325-6.24c.637-2.5.342-5.237-.807-7.547a10.919 10.919 0 00-5.546-5.183c-2.394-.99-5.181-1.085-7.585-.295l-.75-2.28z" fill="url(#paint0_linear)"/><path fill-rule="evenodd" clip-rule="evenodd" d="M24 16c-3.883 1.868-5.935.988-7.958-.001l-.174-.085C13.903 14.95 11.91 13.972 8 16l8 8 8-8z" fill="#000"/><path opacity=".5" fill-rule="evenodd" clip-rule="evenodd" d="M24 16l-8-8-8 8c4.025-2.088 6.019-.99 8.042-.001 2.023.989 4.075 1.869 7.958.001z" fill="#000"/><path fill-rule="evenodd" clip-rule="evenodd" d="M14.064 17.869c.039.271.235.666.47.915.236.248.51.35.766.41a2.9 2.9 0 00.752.068c.254-.007.521-.037.768-.095.247-.057.474-.141.649-.318.174-.176.295-.445.326-.708a1.12 1.12 0 00-.159-.73c-.132-.21-.338-.372-.732-.521-.393-.149-.975-.285-1.408-.403a5.672 5.672 0 01-.975-.343 2.853 2.853 0 01-.667-.427 1.718 1.718 0 01-.394-.51 1.733 1.733 0 01-.162-.515 2.117 2.117 0 01.071-.966 1.93 1.93 0 01.233-.487c.108-.163.25-.325.44-.473a2.6 2.6 0 01.687-.381c.263-.098.553-.16.87-.188V11.2h.688v.991c1.323.12 2.354.957 2.394 2.223h-.996c-.075-.773-.496-1.12-1.174-1.292-.207-.052-.438-.088-.912-.026-.87.115-1.329.642-1.329 1.198 0 .526.207.81.904 1.092.322.13.749.259 1.123.338 1.645.347 2.465.976 2.465 2.18 0 1.38-1.123 2.13-2.475 2.234v.99h-.688v-.996c-1.364-.12-2.492-.928-2.532-2.263h.997z" fill="#fff"/><defs><linearGradient id="paint0_linear" x1="2.043" y1="13.297" x2="15.222" y2="29.576" gradientUnits="userSpaceOnUse"><stop stop-color="#004CFF"/><stop offset=".252" stop-color="#00E0FB"/><stop offset=".506" stop-color="#87FF70"/><stop offset=".755" stop-color="#F8F500"/><stop offset="1" stop-color="#FF1A00"/></linearGradient></defs></svg>
